packages/kaspersky-hexa-ui-icons/src/iconsSVGs/24/Cross.svg

<svg width="24" height="24" viewBox="0 0 24 24" fill="none" xmlns="http://www.w3.org/2000/svg">
<path d="M6.23032 4.81609C5.83979 4.42556 5.20663 4.42556 4.8161 4.81609C4.42558 5.20661 4.42558 5.83978 4.8161 6.2303L10.5857 11.9999L4.81609 17.7695C4.42556 18.16 4.42556 18.7932 4.81609 19.1837C5.20661 19.5742 5.83978 19.5742 6.2303 19.1837L11.9999 13.4141L17.7695 19.1837C18.16 19.5742 18.7932 19.5742 19.1837 19.1837C19.5742 18.7932 19.5742 18.16 19.1837 17.7695L13.4141 11.9999L19.1837 6.23033C19.5742 5.83981 19.5742 5.20664 19.1837 4.81612C18.7932 4.42559 18.16 4.42559 17.7695 4.81612L11.9999 10.5857L6.23032 4.81609Z" fill="black"/>
</svg>

<svg xmlns="http://www.w3.org/2000/svg" width="24" height="24" fill="none" viewBox="0 0 24 24"><path fill="#000" d="M6.2303 4.8162c-.3905-.3905-1.0237-.3905-1.4142 0s-.3905 1.0237 0 1.4142L10.5857 12l-5.7696 5.7696c-.3905.3905-.3905 1.0237 0 1.4142.3905.3906 1.0237.3906 1.4142 0l5.7696-5.7696 5.7696 5.7696c.3905.3905 1.0237.3905 1.4142 0s.3905-1.0237 0-1.4142L13.4141 12l5.7696-5.7695c.3905-.3906.3905-1.0237 0-1.4143s-1.0237-.3905-1.4142 0l-5.7696 5.7696z"/></svg>
